documentation/public/assets/images/input-12-do-and-dont-05.svg

<svg width="294" height="96" viewBox="0 0 294 96" fill="none" xmlns="http://www.w3.org/2000/svg">
<rect x="1" y="29" width="292" height="39" rx="3.5" fill="white"/>
<path d="M13.9091 54.5V42.8636H20.9318V44.1136H15.3182V48.0455H20.5682V49.2955H15.3182V53.25H21.0227V54.5H13.9091ZM24.267 54.5909C23.9867 54.5909 23.7462 54.4905 23.5455 54.2898C23.3447 54.089 23.2443 53.8485 23.2443 53.5682C23.2443 53.2879 23.3447 53.0473 23.5455 52.8466C23.7462 52.6458 23.9867 52.5455 24.267 52.5455C24.5473 52.5455 24.7879 52.6458 24.9886 52.8466C25.1894 53.0473 25.2898 53.2879 25.2898 53.5682C25.2898 53.7538 25.2424 53.9242 25.1477 54.0795C25.0568 54.2348 24.9337 54.3598 24.7784 54.4545C24.6269 54.5455 24.4564 54.5909 24.267 54.5909ZM31.2188 57.9545C30.571 57.9545 30.0142 57.8712 29.5483 57.7045C29.0824 57.5417 28.6941 57.3258 28.3835 57.0568C28.0767 56.7917 27.8324 56.5076 27.6506 56.2045L28.7188 55.4545C28.84 55.6136 28.9934 55.7955 29.179 56C29.3646 56.2083 29.6184 56.3883 29.9403 56.5398C30.2661 56.6951 30.6922 56.7727 31.2188 56.7727C31.9233 56.7727 32.5047 56.6023 32.9631 56.2614C33.4214 55.9205 33.6506 55.3864 33.6506 54.6591V52.8864H33.5369C33.4384 53.0455 33.2983 53.2424 33.1165 53.4773C32.9384 53.7083 32.6809 53.9148 32.3438 54.0966C32.0104 54.2746 31.5597 54.3636 30.9915 54.3636C30.2869 54.3636 29.6544 54.197 29.0938 53.8636C28.5369 53.5303 28.0956 53.0455 27.7699 52.4091C27.4479 51.7727 27.2869 51 27.2869 50.0909C27.2869 49.197 27.4441 48.4186 27.7585 47.7557C28.0729 47.089 28.5104 46.5739 29.071 46.2102C29.6316 45.8428 30.2794 45.6591 31.0142 45.6591C31.5824 45.6591 32.0331 45.7538 32.3665 45.9432C32.7036 46.1288 32.9612 46.3409 33.1392 46.5795C33.321 46.8144 33.4612 47.0076 33.5597 47.1591H33.696V45.7727H34.9915V54.75C34.9915 55.5 34.821 56.1098 34.4801 56.5795C34.143 57.053 33.6884 57.3996 33.1165 57.6193C32.5483 57.8428 31.9157 57.9545 31.2188 57.9545ZM31.1733 53.1591C31.7112 53.1591 32.1657 53.036 32.5369 52.7898C32.9081 52.5436 33.1903 52.1894 33.3835 51.7273C33.5767 51.2652 33.6733 50.7121 33.6733 50.0682C33.6733 49.4394 33.5786 48.8845 33.3892 48.4034C33.1998 47.9223 32.9195 47.5455 32.5483 47.2727C32.1771 47 31.7188 46.8636 31.1733 46.8636C30.6051 46.8636 30.1316 47.0076 29.7528 47.2955C29.3778 47.5833 29.0956 47.9697 28.9062 48.4545C28.7206 48.9394 28.6278 49.4773 28.6278 50.0682C28.6278 50.6742 28.7225 51.2102 28.9119 51.6761C29.1051 52.1383 29.3892 52.5019 29.7642 52.767C30.143 53.0284 30.6127 53.1591 31.1733 53.1591ZM38.4233 54.5909C38.143 54.5909 37.9025 54.4905 37.7017 54.2898C37.5009 54.089 37.4006 53.8485 37.4006 53.5682C37.4006 53.2879 37.5009 53.0473 37.7017 52.8466C37.9025 52.6458 38.143 52.5455 38.4233 52.5455C38.7036 52.5455 38.9441 52.6458 39.1449 52.8466C39.3456 53.0473 39.446 53.2879 39.446 53.5682C39.446 53.7538 39.3987 53.9242 39.304 54.0795C39.2131 54.2348 39.09 54.3598 38.9347 54.4545C38.7831 54.5455 38.6127 54.5909 38.4233 54.5909ZM46.5341 54.5V42.8636H47.9432V53.25H53.3523V54.5H46.5341ZM58.8977 54.6818C58.1098 54.6818 57.4186 54.4943 56.8239 54.1193C56.233 53.7443 55.7708 53.2197 55.4375 52.5455C55.108 51.8712 54.9432 51.0833 54.9432 50.1818C54.9432 49.2727 55.108 48.4792 55.4375 47.8011C55.7708 47.1231 56.233 46.5966 56.8239 46.2216C57.4186 45.8466 58.1098 45.6591 58.8977 45.6591C59.6856 45.6591 60.375 45.8466 60.9659 46.2216C61.5606 46.5966 62.0227 47.1231 62.3523 47.8011C62.6856 48.4792 62.8523 49.2727 62.8523 50.1818C62.8523 51.0833 62.6856 51.8712 62.3523 52.5455C62.0227 53.2197 61.5606 53.7443 60.9659 54.1193C60.375 54.4943 59.6856 54.6818 58.8977 54.6818ZM58.8977 53.4773C59.4962 53.4773 59.9886 53.3239 60.375 53.017C60.7614 52.7102 61.0473 52.3068 61.233 51.8068C61.4186 51.3068 61.5114 50.7652 61.5114 50.1818C61.5114 49.5985 61.4186 49.0549 61.233 48.5511C61.0473 48.0473 60.7614 47.6402 60.375 47.3295C59.9886 47.0189 59.4962 46.8636 58.8977 46.8636C58.2992 46.8636 57.8068 47.0189 57.4205 47.3295C57.0341 47.6402 56.7481 48.0473 56.5625 48.5511C56.3769 49.0549 56.2841 49.5985 56.2841 50.1818C56.2841 50.7652 56.3769 51.3068 56.5625 51.8068C56.7481 52.3068 57.0341 52.7102 57.4205 53.017C57.8068 53.3239 58.2992 53.4773 58.8977 53.4773ZM66.2401 49.25V54.5H64.8991V45.7727H66.1946V47.1364H66.3082C66.5128 46.6932 66.8234 46.3371 67.2401 46.0682C67.6567 45.7955 68.1946 45.6591 68.8537 45.6591C69.4446 45.6591 69.9616 45.7803 70.4048 46.0227C70.848 46.2614 71.1927 46.625 71.4389 47.1136C71.6851 47.5985 71.8082 48.2121 71.8082 48.9545V54.5H70.4673V49.0455C70.4673 48.3598 70.2893 47.8258 69.9332 47.4432C69.5772 47.0568 69.0885 46.8636 68.4673 46.8636C68.0393 46.8636 67.6567 46.9564 67.3196 47.142C66.9863 47.3277 66.723 47.5985 66.5298 47.9545C66.3366 48.3106 66.2401 48.7424 66.2401 49.25ZM77.554 54.6818C76.8267 54.6818 76.1847 54.4981 75.6278 54.1307C75.071 53.7595 74.6354 53.2367 74.321 52.5625C74.0066 51.8845 73.8494 51.0833 73.8494 50.1591C73.8494 49.2424 74.0066 48.447 74.321 47.7727C74.6354 47.0985 75.0729 46.5777 75.6335 46.2102C76.1941 45.8428 76.8419 45.6591 77.5767 45.6591C78.1449 45.6591 78.5938 45.7538 78.9233 45.9432C79.2566 46.1288 79.5104 46.3409 79.6847 46.5795C79.8627 46.8144 80.0009 47.0076 80.0994 47.1591H80.2131V42.8636H81.554V54.5H80.2585V53.1591H80.0994C80.0009 53.3182 79.8608 53.5189 79.679 53.7614C79.4972 54 79.2377 54.214 78.9006 54.4034C78.5634 54.589 78.1146 54.6818 77.554 54.6818ZM77.7358 53.4773C78.2737 53.4773 78.7282 53.3371 79.0994 53.0568C79.4706 52.7727 79.7528 52.3807 79.946 51.8807C80.1392 51.3769 80.2358 50.7955 80.2358 50.1364C80.2358 49.4848 80.1411 48.9148 79.9517 48.4261C79.7623 47.9337 79.482 47.5511 79.1108 47.2784C78.7396 47.0019 78.2813 46.8636 77.7358 46.8636C77.1676 46.8636 76.6941 47.0095 76.3153 47.3011C75.9403 47.589 75.6581 47.9811 75.4688 48.4773C75.2831 48.9697 75.1903 49.5227 75.1903 50.1364C75.1903 50.7576 75.285 51.322 75.4744 51.8295C75.6676 52.3333 75.9517 52.7348 76.3267 53.0341C76.7055 53.3295 77.1752 53.4773 77.7358 53.4773ZM87.7415 54.6818C86.9536 54.6818 86.2623 54.4943 85.6676 54.1193C85.0767 53.7443 84.6146 53.2197 84.2812 52.5455C83.9517 51.8712 83.7869 51.0833 83.7869 50.1818C83.7869 49.2727 83.9517 48.4792 84.2812 47.8011C84.6146 47.1231 85.0767 46.5966 85.6676 46.2216C86.2623 45.8466 86.9536 45.6591 87.7415 45.6591C88.5294 45.6591 89.2188 45.8466 89.8097 46.2216C90.4044 46.5966 90.8665 47.1231 91.196 47.8011C91.5294 48.4792 91.696 49.2727 91.696 50.1818C91.696 51.0833 91.5294 51.8712 91.196 52.5455C90.8665 53.2197 90.4044 53.7443 89.8097 54.1193C89.2188 54.4943 88.5294 54.6818 87.7415 54.6818ZM87.7415 53.4773C88.34 53.4773 88.8324 53.3239 89.2188 53.017C89.6051 52.7102 89.8911 52.3068 90.0767 51.8068C90.2623 51.3068 90.3551 50.7652 90.3551 50.1818C90.3551 49.5985 90.2623 49.0549 90.0767 48.5511C89.8911 48.0473 89.6051 47.6402 89.2188 47.3295C88.8324 47.0189 88.34 46.8636 87.7415 46.8636C87.143 46.8636 86.6506 47.0189 86.2642 47.3295C85.8778 47.6402 85.5919 48.0473 85.4062 48.5511C85.2206 49.0549 85.1278 49.5985 85.1278 50.1818C85.1278 50.7652 85.2206 51.3068 85.4062 51.8068C85.5919 52.3068 85.8778 52.7102 86.2642 53.017C86.6506 53.3239 87.143 53.4773 87.7415 53.4773ZM95.0838 49.25V54.5H93.7429V45.7727H95.0384V47.1364H95.152C95.3565 46.6932 95.6671 46.3371 96.0838 46.0682C96.5005 45.7955 97.0384 45.6591 97.6974 45.6591C98.2884 45.6591 98.8054 45.7803 99.2486 46.0227C99.6918 46.2614 100.036 46.625 100.283 47.1136C100.529 47.5985 100.652 48.2121 100.652 48.9545V54.5H99.3111V49.0455C99.3111 48.3598 99.133 47.8258 98.777 47.4432C98.4209 47.0568 97.9323 46.8636 97.3111 46.8636C96.883 46.8636 96.5005 46.9564 96.1634 47.142C95.83 47.3277 95.5668 47.5985 95.3736 47.9545C95.1804 48.3106 95.0838 48.7424 95.0838 49.25Z" fill="#757575"/>
<rect x="1" y="29" width="292" height="39" rx="3.5" stroke="#545454"/>
<path d="M10.2195 9.75355H8.36009C8.30706 9.44863 8.20928 9.1785 8.06676 8.94318C7.92424 8.70455 7.74692 8.50237 7.5348 8.33665C7.32268 8.17093 7.08073 8.04664 6.80895 7.96378C6.54048 7.8776 6.25047 7.83452 5.93892 7.83452C5.38542 7.83452 4.89489 7.97372 4.46733 8.25213C4.03977 8.52722 3.70502 8.93158 3.46307 9.4652C3.22112 9.9955 3.10014 10.6435 3.10014 11.4091C3.10014 12.188 3.22112 12.8442 3.46307 13.3778C3.70833 13.9081 4.04309 14.3092 4.46733 14.581C4.89489 14.8494 5.38376 14.9837 5.93395 14.9837C6.23887 14.9837 6.52391 14.9439 6.78906 14.8643C7.05753 14.7815 7.29782 14.6605 7.50994 14.5014C7.72538 14.3423 7.90601 14.1468 8.05185 13.9148C8.20099 13.6828 8.30374 13.4176 8.36009 13.1193L10.2195 13.1293C10.1499 13.6132 9.99905 14.0672 9.76705 14.4915C9.53835 14.9157 9.2384 15.2902 8.86719 15.6151C8.49598 15.9366 8.06179 16.1884 7.56463 16.3707C7.06747 16.5497 6.51563 16.6392 5.90909 16.6392C5.0142 16.6392 4.21544 16.4321 3.51278 16.0178C2.81013 15.6035 2.25663 15.0052 1.85227 14.223C1.44792 13.4408 1.24574 12.5028 1.24574 11.4091C1.24574 10.312 1.44957 9.37405 1.85724 8.59517C2.26491 7.81297 2.82008 7.21473 3.52273 6.80043C4.22538 6.38613 5.02083 6.17898 5.90909 6.17898C6.47585 6.17898 7.00284 6.25852 7.49006 6.41761C7.97727 6.5767 8.41146 6.81037 8.79261 7.11861C9.17377 7.42353 9.48698 7.79806 9.73224 8.24219C9.98082 8.683 10.1432 9.18679 10.2195 9.75355ZM11.829 16.5V8.86364H13.6287V16.5H11.829ZM12.7338 7.77983C12.4488 7.77983 12.2035 7.68537 11.998 7.49645C11.7926 7.30421 11.6898 7.07386 11.6898 6.8054C11.6898 6.53362 11.7926 6.30327 11.998 6.11435C12.2035 5.92211 12.4488 5.82599 12.7338 5.82599C13.0222 5.82599 13.2675 5.92211 13.4696 6.11435C13.6751 6.30327 13.7779 6.53362 13.7779 6.8054C13.7779 7.07386 13.6751 7.30421 13.4696 7.49645C13.2675 7.68537 13.0222 7.77983 12.7338 7.77983ZM19.2926 8.86364V10.2557H14.9027V8.86364H19.2926ZM15.9865 7.03409H17.7862V14.2031C17.7862 14.4451 17.8227 14.6307 17.8956 14.7599C17.9718 14.8859 18.0713 14.9721 18.1939 15.0185C18.3165 15.0649 18.4524 15.0881 18.6016 15.0881C18.7143 15.0881 18.817 15.0798 18.9098 15.0632C19.0059 15.0466 19.0788 15.0317 19.1286 15.0185L19.4318 16.4254C19.3357 16.4586 19.1982 16.495 19.0192 16.5348C18.8435 16.5746 18.6281 16.5978 18.3729 16.6044C17.9221 16.6177 17.5161 16.5497 17.1548 16.4006C16.7936 16.2481 16.5069 16.0128 16.2947 15.6946C16.0859 15.3764 15.9832 14.9787 15.9865 14.5014V7.03409ZM21.9164 19.3636C21.6711 19.3636 21.4441 19.3438 21.2353 19.304C21.0298 19.2675 20.8657 19.2244 20.7431 19.1747L21.1607 17.7727C21.4225 17.849 21.6562 17.8854 21.8617 17.8821C22.0672 17.8788 22.2478 17.8142 22.4036 17.6882C22.5627 17.5656 22.6969 17.3601 22.8063 17.0717L22.9604 16.6591L20.1912 8.86364H22.1003L23.8603 14.6307H23.9398L25.7047 8.86364H27.6188L24.5613 17.4247C24.4187 17.8291 24.2298 18.1754 23.9945 18.4638C23.7592 18.7554 23.4708 18.9775 23.1294 19.13C22.7914 19.2857 22.387 19.3636 21.9164 19.3636Z" fill="#333333"/>
</svg>

<svg width="294" height="96" fill="none" xmlns="http://www.w3.org/2000/svg"><rect x="1" y="29" width="292" height="39" rx="3.5" fill="#fff"/><path d="M13.9 54.5V42.86h7.03v1.25h-5.61v3.94h5.25v1.25h-5.25v3.95h5.7v1.25h-7.11Zm10.37.1a.98.98 0 0 1-.72-.31.98.98 0 0 1-.3-.72c0-.28.1-.52.3-.72.2-.2.44-.3.72-.3.28 0 .52.1.72.3.2.2.3.44.3.72a1.06 1.06 0 0 1-.51.89.97.97 0 0 1-.51.13Zm6.95 3.35a4.9 4.9 0 0 1-1.67-.25 3.54 3.54 0 0 1-1.9-1.5l1.07-.75c.12.16.27.35.46.55.18.2.44.39.76.54.33.16.75.23 1.28.23.7 0 1.28-.17 1.74-.5.46-.35.7-.88.7-1.61v-1.77h-.12c-.1.16-.24.35-.42.59-.18.23-.44.43-.78.62-.33.17-.78.26-1.35.26a3.5 3.5 0 0 1-3.22-1.95 5.09 5.09 0 0 1-.48-2.32c0-.9.15-1.67.47-2.33a3.46 3.46 0 0 1 3.26-2.1c.56 0 1.01.1 1.35.28.33.19.6.4.77.64.18.23.32.43.42.58h.14v-1.39H35v8.98c0 .75-.18 1.36-.52 1.83s-.8.82-1.36 1.04c-.57.22-1.2.33-1.9.33Zm-.05-4.8c.54 0 1-.11 1.37-.36.37-.25.65-.6.84-1.06.2-.46.3-1.02.3-1.66 0-.63-.1-1.19-.3-1.67a2.5 2.5 0 0 0-.83-1.13c-.37-.27-.83-.4-1.38-.4a2.28 2.28 0 0 0-2.26 1.58 4.48 4.48 0 0 0-.28 1.62c0 .6.1 1.14.28 1.6.2.47.48.83.85 1.1.38.26.85.39 1.41.39Zm7.25 1.44a.98.98 0 0 1-.72-.3.98.98 0 0 1-.3-.72c0-.28.1-.52.3-.72.2-.2.44-.3.72-.3.28 0 .52.1.72.3.2.2.3.44.3.72a1.06 1.06 0 0 1-.51.89.97.97 0 0 1-.5.13Zm8.11-.09V42.86h1.41v10.39h5.41v1.25h-6.82Zm12.37.18a3.8 3.8 0 0 1-2.08-.56 3.84 3.84 0 0 1-1.38-1.57 5.32 5.32 0 0 1-.5-2.37c0-.9.17-1.7.5-2.38.33-.68.8-1.2 1.38-1.58a3.8 3.8 0 0 1 2.08-.56c.79 0 1.48.19 2.07.56.6.38 1.05.9 1.38 1.58.34.68.5 1.47.5 2.38 0 .9-.16 1.7-.5 2.37-.33.67-.79 1.2-1.38 1.57-.6.37-1.28.56-2.07.56Zm0-1.2c.6 0 1.09-.16 1.48-.46.38-.31.67-.71.85-1.21a4.8 4.8 0 0 0 0-3.26c-.18-.5-.47-.91-.85-1.22a2.28 2.28 0 0 0-1.48-.47c-.6 0-1.1.16-1.48.47-.39.31-.67.72-.86 1.22a4.8 4.8 0 0 0 0 3.26c.19.5.47.9.86 1.2.39.31.88.47 1.48.47Zm7.34-4.23v5.25H64.9v-8.73h1.3v1.37h.1c.21-.45.52-.8.94-1.07.42-.27.95-.41 1.61-.41.6 0 1.11.12 1.55.36.45.24.8.6 1.04 1.1.25.48.37 1.1.37 1.83v5.55h-1.34v-5.45c0-.69-.18-1.22-.54-1.6a1.9 1.9 0 0 0-1.46-.59c-.43 0-.81.1-1.15.28a2 2 0 0 0-.79.81c-.2.36-.29.8-.29 1.3Zm11.31 5.43a3.42 3.42 0 0 1-3.23-2.12 5.67 5.67 0 0 1-.47-2.4c0-.92.16-1.71.47-2.39a3.46 3.46 0 0 1 3.26-2.11c.56 0 1.01.1 1.34.28.34.19.59.4.76.64.18.23.32.43.42.58h.11v-4.3h1.34V54.5h-1.3v-1.34h-.15l-.42.6a2.5 2.5 0 0 1-.78.64 2.8 2.8 0 0 1-1.35.28Zm.19-1.2c.53 0 .99-.14 1.36-.42.37-.29.65-.68.85-1.18.19-.5.29-1.08.29-1.74 0-.66-.1-1.23-.29-1.71a2.24 2.24 0 0 0-2.22-1.56c-.56 0-1.04.14-1.41.43a2.6 2.6 0 0 0-.85 1.18 5.03 5.03 0 0 0 0 3.35c.2.5.48.9.86 1.2.38.3.85.45 1.4.45Zm10 1.2a3.8 3.8 0 0 1-2.07-.56c-.6-.38-1.06-.9-1.39-1.57a5.32 5.32 0 0 1-.5-2.37c0-.9.17-1.7.5-2.38.33-.68.8-1.2 1.39-1.58a3.8 3.8 0 0 1 2.07-.56c.79 0 1.48.19 2.07.56.6.38 1.06.9 1.39 1.58.33.68.5 1.47.5 2.38 0 .9-.17 1.7-.5 2.37a3.8 3.8 0 0 1-1.39 1.57c-.6.37-1.28.56-2.07.56Zm0-1.2c.6 0 1.1-.16 1.48-.46.39-.31.67-.71.86-1.21a4.77 4.77 0 0 0 0-3.26c-.19-.5-.47-.91-.86-1.22a2.28 2.28 0 0 0-1.48-.47c-.6 0-1.09.16-1.48.47-.38.31-.67.72-.85 1.22a4.77 4.77 0 0 0 0 3.26c.18.5.47.9.85 1.2.4.31.88.47 1.48.47Zm7.34-4.23v5.25h-1.34v-8.73h1.3v1.37h.11c.2-.45.52-.8.93-1.07.42-.27.96-.41 1.62-.41.59 0 1.1.12 1.55.36.44.24.79.6 1.03 1.1.25.48.37 1.1.37 1.83v5.55h-1.34v-5.45c0-.69-.18-1.22-.53-1.6a1.9 1.9 0 0 0-1.47-.59c-.43 0-.8.1-1.15.28a2 2 0 0 0-.79.81c-.19.36-.29.8-.29 1.3Z" fill="#757575"/><rect x="1" y="29" width="292" height="39" rx="3.5" stroke="#545454"/><path d="M10.22 9.75H8.36a2.31 2.31 0 0 0-.83-1.41 2.22 2.22 0 0 0-.72-.38 2.83 2.83 0 0 0-2.34.3c-.43.27-.76.67-1 1.2a4.67 4.67 0 0 0-.37 1.95c0 .78.12 1.43.36 1.97.25.53.58.93 1 1.2a2.96 2.96 0 0 0 2.32.28 2.34 2.34 0 0 0 1.27-.95c.15-.23.25-.5.31-.8l1.86.02a4 4 0 0 1-2.66 3.24 4.8 4.8 0 0 1-1.65.27 4.34 4.34 0 0 1-4.06-2.42 6.1 6.1 0 0 1-.6-2.81 6 6 0 0 1 .6-2.81 4.37 4.37 0 0 1 4.06-2.42c.57 0 1.1.08 1.58.24a3.98 3.98 0 0 1 2.24 1.82c.25.44.41.95.49 1.51Zm1.6 6.75V8.86h1.8v7.64h-1.8Zm.91-8.72c-.28 0-.53-.1-.73-.28a.91.91 0 0 1-.31-.7c0-.27.1-.5.3-.69.21-.19.46-.28.74-.28.3 0 .54.1.74.28.2.2.3.42.3.7 0 .26-.1.5-.3.69-.2.19-.45.28-.74.28Zm6.56 1.08v1.4H14.9v-1.4h4.4ZM16 7.03h1.8v7.17c0 .25.03.43.1.56.08.13.18.21.3.26.13.04.26.07.41.07a1.76 1.76 0 0 0 .53-.07l.3 1.4a4 4 0 0 1-1.06.18c-.45.02-.85-.05-1.22-.2a1.9 1.9 0 0 1-.86-.7 2.1 2.1 0 0 1-.3-1.2V7.03Zm5.93 12.33a3.64 3.64 0 0 1-1.18-.19l.42-1.4c.26.08.5.12.7.11.2 0 .39-.07.54-.2.16-.11.3-.32.4-.6l.16-.42-2.77-7.8h1.91l1.76 5.77h.08l1.76-5.77h1.92l-3.06 8.56c-.14.4-.33.76-.57 1.04-.23.3-.52.52-.86.67-.34.16-.74.23-1.21.23Z" fill="#333"/></svg>
